img/ui/icons/balans.svg.svg

<svg width="24" height="24" viewBox="0 0 24 24" fill="none" xmlns="http://www.w3.org/2000/svg">
<path d="M2.76813 4.93109C2.13624 5.56298 1.78125 6.42001 1.78125 7.31363V16.6864C1.78125 17.58 2.13624 18.4371 2.76813 19.0689C3.40002 19.7008 4.25704 20.0558 5.15067 20.0558H18.8493C19.743 20.0558 20.6 19.7008 21.2319 19.0689C21.8638 18.4371 22.2188 17.58 22.2188 16.6864V7.31363C22.2188 6.42001 21.8638 5.56298 21.2319 4.93109C20.6 4.29921 19.743 3.94421 18.8493 3.94421H5.15067C4.25704 3.94421 3.40002 4.29921 2.76813 4.93109ZM3.96453 6.12749C4.27911 5.81291 4.70578 5.63618 5.15067 5.63618H18.8493C19.2942 5.63618 19.7209 5.81291 20.0355 6.12749C20.3501 6.44208 20.5268 6.86874 20.5268 7.31363V8.27011H3.47321V7.31363C3.47321 6.86874 3.64995 6.44208 3.96453 6.12749ZM3.96453 17.8725C3.64995 17.558 3.47321 17.1313 3.47321 16.6864V9.96207H20.5268V16.6864C20.5268 17.1313 20.3501 17.558 20.0355 17.8725C19.7209 18.1871 19.2942 18.3639 18.8493 18.3639H5.15067C4.70578 18.3639 4.27911 18.1871 3.96453 17.8725ZM17.7679 14.038H15.6049C15.3805 14.038 15.1654 14.1271 15.0067 14.2857C14.8481 14.4444 14.7589 14.6596 14.7589 14.8839C14.7589 15.1083 14.8481 15.3235 15.0067 15.4821C15.1654 15.6408 15.3805 15.7299 15.6049 15.7299H17.7679C17.9922 15.7299 18.2074 15.6408 18.3661 15.4821C18.5247 15.3235 18.6138 15.1083 18.6138 14.8839C18.6138 14.6596 18.5247 14.4444 18.3661 14.2857C18.2074 14.1271 17.9922 14.038 17.7679 14.038Z" fill="#0F0F0F" stroke="#0F0F0F" stroke-width="0.25"/>
</svg>

<svg width="24" height="24" fill="none" xmlns="http://www.w3.org/2000/svg"><path d="M2.768 4.931a3.37 3.37 0 0 0-.987 2.383v9.372a3.37 3.37 0 0 0 3.37 3.37h13.698a3.37 3.37 0 0 0 3.37-3.37V7.314a3.37 3.37 0 0 0-3.37-3.37H5.151a3.37 3.37 0 0 0-2.383.987Zm1.197 1.196a1.677 1.677 0 0 1 1.186-.49h13.698a1.678 1.678 0 0 1 1.678 1.677v.956H3.473v-.956c0-.445.177-.872.492-1.187Zm0 11.745a1.677 1.677 0 0 1-.492-1.186V9.962h17.054v6.724a1.677 1.677 0 0 1-1.678 1.678H5.151c-.445 0-.872-.177-1.186-.492Zm13.803-3.834h-2.163a.846.846 0 1 0 0 1.692h2.163a.846.846 0 0 0 0-1.692Z" fill="#0F0F0F" stroke="#0F0F0F" stroke-width=".25"/></svg>
